X:1
T:Title
%%score ( 1 2 ) ( 3 4 )
L:1/8
M:4/4
K:G
V:1 treble nm="Choir Aahs, Staff"
V:2 treble 
V:3 bass nm="Choir Aahs, Staff-1"
V:4 bass 
V:1
 [DG]2 [DG]>[DA] [DB]2 [Dc]2 | c4 z4 | [Bd]2 [GB]2 [FA]2 [Ac]2 | [GB]6 z2 | %4
w: By~William~Bradbury * * * *||||
 [FA]2 [FA][GB] [Ac]2 [DF]2 | [EG]4 [FA]4 | [GB]6 z2 | [Ge]2 [Ge][Ge] [Gd]2 [Gd]2 | %8
w: ||||
 [Ad]2 [Fc]2 [GB]2 [FA]2 | G3 [GA] [GB]2 A-[DA] | [DG]6 z2 |] %11
w: |||
V:2
 x8 | G4- [GB]2 [GB]2 | x8 | x8 | x8 | x8 | x8 | x8 | x8 | z4 z2 .F2 | x8 |] %11
V:3
 [G,B,]2 [G,B,]>[G,C] [G,D]2 [G,E]2 | E4 D4- | D8- | D6 z2 | z8 | %5
 [E,B,]2 [E,B,][E,B,] [D,D]2 [D,D]2 | [G,D]2 [G,D]2 [G,D]2 z2 | C2 z2 z4 | %8
 [F,A,]2 [D,A,]2 G,2 [D,D]2 | [B,,D]2 [C,E]2 [D,D]2 [D,C]2 | [G,,B,]6 z2 |] %11
V:4
 x8 | G,2 G,2 G,2 G,2 | D,6 D,2 | G,6 z2 | x8 | x8 | x8 | C,D,[E,C][F,C] [G,B,]2 [G,B,]2 | x8 | %9
 x8 | x8 |] %11

